X:1
T:Ariettes Oubliées
T:C'est L'Extase
T:1. C'est l'Extase
T:Claude Debussy
T:Paul Verlaine
T:Ariettes Oubliées
T:Creative Commons copyright waiver (CC0 1.0 Universal) 
T:Creative Commons copyright waiver (CC0 1.0 Universal) 
C:Claude Debussy
Z:Paul Verlaine
Z:Creative Commons copyright waiver (CC0 1.0 Universal)
L:1/8
M:3/8
K:E
V:1 treble nm="Voice" snm="Vo."
V:1
 z3 | z3 | z AG | G>FE/D/ | D C2 | z z/ C/F/A/ | c2 ^B/G/ | c2 ^B | =B2 z | z3 | z G/G/G/G/ | %11
w: ||C'est l'ex-|ta- se lan- gou-|reu- se,|C'est la fa-|ti- gue~a- mou-|reu- *|se,||C'est tous les fris-|
 ^A/A/AA | G/G/GG/G/ | ^A2- A | z/ _B/ z/ B/B/B/ | =c/=G/GE | =D/D/D/D/D/D/ | ^D3 | z3 | %19
w: sons des bois Par-|mi l'é- trein- te des|bri- ses.|C'est, vers les ra-|mu- res gri- ses,|Le choeur des pe- ti- tes|voix.||
 z/ Gc/c/G/ | G/F/GG | z/ G/G/B/A | G/d/dc/G/ | g-g/=g/f/^e/ | ^g-g/=g/f/^e/ | ^ed/=d/c/^B/ | %26
w: O le frê- le~et|frais mur- mu- re,|Ce- la ga- zouille|et su- su- re, Ce-|la * * res- *|sem- ble * au cri|doux Que l'herbe a- gi-|
 =B/^A/ A2 | =A2 z | z F/F/A | z/ F/F/F/c- | cAF | F/=F/E/D/=D/C/ | ^F/=F/E/^D/=D/C/ | ^F2 z | z3 | %35
w: tée ex- pi-|re.|Tu di- rais,|sous l'eau qui vi-|* * re,|Le * rou- * lis *|sourd * des * cail- *|loux,||
 z z z/ F/ | BB/B/B/B/ | =cc/c/c/c/ | =dB/F/F/^D/ | =D/A/A=F | (3z/ A/c/c z/ c/ | cB z/ =d/ | %42
w: Cette|â- me qui se la-|men- te En cet- te|plain- te dor- man- te,|C'est la nô- tre,|n'est– ce pas? La|mien- ne, dis,|
 (3z/ =f/a/ a2- | a/a/g^f | dc/A/G/F/ | C-C/C/=C/C/ | ^C/C/C z/ E/ | E2 z | z3 | z3 | z3 | z3 |] %52
w: et la tien-|* ne Dont s'ex-|ha- * le l'hum- ble~an-|tien- * ne, Par ce|tiè- de soir, tout|bas.|||||

